ladingpage-exp-fem-2/img/card/1.svg

<svg width="70" height="70" viewBox="0 0 70 70" fill="none" xmlns="http://www.w3.org/2000/svg">
<path fill-rule="evenodd" clip-rule="evenodd" d="M25.4276 0.176718C16.7421 1.3709 9.13886 6.53412 9.13886 11.2375V12.57L10.118 10.7685C12.9621 5.53686 21.3497 2.60967 29.4784 4.01236C32.9195 4.60629 35.481 6.00688 39.1997 9.32757L42.6462 12.4053L39.1997 10.8896C37.3041 10.0559 34.6412 8.71433 33.2821 7.90838C30.0846 6.01215 27.3465 5.28482 23.4991 5.3101C18.6522 5.34204 13.3512 6.75526 13.3512 8.01579C13.3512 8.7726 15.8024 10.6232 18.0545 11.5664C20.6144 12.6388 24.293 13.2889 30.775 13.8147C37.4952 14.3599 42.2383 15.7166 44.6566 17.7848C45.5741 18.5697 45.8759 19.4595 44.9978 18.7915C43.9711 18.0105 39.8817 16.956 35.1788 16.2592C28.7914 15.3132 20.3537 13.8919 18.7901 13.4991C16.6701 12.9659 14.2297 11.4534 13.3252 10.1114L12.4662 8.83789L11.7788 9.66947C9.91967 11.9185 13.5285 16.0616 19.0394 18.0049C22.8006 19.3318 25.6643 19.8028 29.9838 19.8063C36.3502 19.8109 41.1669 21.016 43.7349 23.246C45.3428 24.6424 46.6238 27.2024 47.4498 30.6705C47.8526 32.3632 48.2976 34.046 48.4385 34.4104C48.9398 35.706 50.622 37.4432 52.3449 38.4447C54.3369 39.6027 54.2148 39.7831 52.1086 38.7929C50.3953 37.9876 49.3181 36.9465 48.2601 35.0731C47.2162 33.2256 47.2058 33.7603 48.2459 35.7885C49.5356 38.3032 51.5185 39.609 55.3988 40.4978C58.6266 41.2374 61.8192 42.4421 62.2519 43.0838C62.3684 43.2562 62.1187 43.2969 61.6971 43.1744C61.2754 43.0519 59.4864 42.737 57.7214 42.4751C53.8793 41.9051 52.2312 41.3154 50.4298 39.8653C48.7809 38.538 47.0929 35.2145 46.8328 32.7837C46.5717 30.3402 44.9921 26.856 43.3462 25.0935C40.8724 22.4443 38.4667 21.7085 30.5835 21.1908C27.5296 20.99 24.0107 20.5846 22.7639 20.2897C18.2846 19.23 13.9195 16.5717 11.3779 13.3556C9.97022 11.5741 9.98516 12.1126 11.4062 14.3837C12.6286 16.3372 15.6508 18.676 18.3857 19.7849C21.108 20.8885 24.5656 21.4828 30.5946 21.883C33.6547 22.0862 37.03 22.4896 38.0949 22.7795C40.4002 23.4071 42.7783 24.9123 44.0194 26.5295C44.832 27.5882 44.7251 27.5433 42.9188 26.0665C39.9009 23.5999 38.5035 23.2702 29.8176 22.9785C22.6781 22.7384 22.258 22.6847 20.2441 21.7503C15.6228 19.6056 12.2284 16.8964 10.5485 14.0116L9.93537 12.9586L9.92006 14.164C9.91163 14.8271 10.2448 16.0139 10.6607 16.8009C12.0504 19.4329 14.4449 21.1788 24.2501 26.711C25.7719 27.5696 27.3672 30.0387 28.0925 32.658C28.575 34.4002 28.616 35.3957 28.3081 37.9234C28.0979 39.6508 28.0684 41.5972 28.2418 42.2898C28.6076 43.7487 29.6289 45.2868 30.415 45.5634C30.7183 45.6702 30.9676 46.1967 30.9688 46.7338C30.9757 50.025 33.2951 52.7314 36.9415 53.703C39.4953 54.3836 41.2312 54.1604 42.8009 52.9497C45.6071 50.7853 44.9197 46.8324 41.7367 46.8324C41.3139 46.8324 40.8628 46.9886 40.7341 47.1796C40.6032 47.3737 40.7464 47.4397 41.06 47.3295C41.8493 47.0518 42.2399 48.4211 41.7072 49.5995C40.9103 51.3638 38.1148 52.2726 36.2698 51.3673C35.3626 50.9222 34.0503 48.4506 34.0384 47.1634C34.0323 46.5102 34.3168 46.1584 35.0831 45.8709L36.1362 45.476L35.0842 45.6652C34.0714 45.8478 34.0415 45.8116 34.2766 44.6764C34.411 44.0281 34.9471 42.155 35.4687 40.514C35.9899 38.8729 36.5831 36.8984 36.7864 36.1262C37.3168 34.1134 36.5697 31.3807 34.9602 29.4479C33.5406 27.743 33.6183 27.545 35.3343 28.5002C36.3196 29.0488 36.5681 29.5725 37.5086 33.0789C38.093 35.2567 39.094 38.0635 39.7335 39.3163C42.2184 44.1832 44.2162 45.8436 51.908 49.4335C55.8404 51.269 56.2601 51.5621 57.0225 53.0055C58.6289 56.0475 57.3024 58.5998 51.8348 62.9855C49.7934 64.6234 47.8817 66.0896 47.5865 66.244C46.7153 66.6997 46.9646 67.5348 48.352 68.8065C49.4878 69.8477 49.8998 70 51.5821 70C52.6424 70 53.9716 69.8392 54.5353 69.6427L55.5604 69.2853L54.5602 68.5643C52.9787 67.4238 53.1981 65.9225 55.3077 63.4492C56.2689 62.322 57.587 60.6498 58.2368 59.7325C59.2237 58.3404 59.6146 58.0638 60.6057 58.0575C63.9204 58.036 66.9667 55.5059 67.6801 52.1824C67.931 51.0142 68.1033 49.9249 68.0631 49.7617C68.0229 49.5985 68.4701 48.5387 69.0564 47.4063C69.9835 45.6168 70.0992 45.0425 69.9406 43.0185C69.6197 38.9214 67.3466 36.2111 62.5652 34.2236C61.1927 33.6532 60.0699 33.0484 60.0699 32.8799C60.0699 32.711 60.9312 32.3709 61.9839 32.1234C63.0362 31.8763 63.9913 31.5351 64.1054 31.3656C64.2199 31.196 63.5953 31.2897 62.718 31.5734C58.578 32.9122 57.5762 31.5488 59.3332 26.9669C59.9428 25.3771 60.0906 24.3086 59.9677 22.386C59.6748 17.8076 56.7326 14.5336 51.1474 12.5703C47.9997 11.4643 46.8512 10.6169 44.6294 7.7627C41.6229 3.90109 38.1091 1.472 34.215 0.563547C31.8204 0.0050676 27.924 -0.166583 25.4276 0.176718ZM6.99133 15.4487C4.48192 19.3742 4.31151 21.8012 6.2668 25.7709C8.55679 30.4203 7.98314 31.9879 3.43534 33.5082C0.605026 34.4542 -0.0712467 35.2107 0.00572437 37.3453C0.0371255 38.2193 0.131712 38.5395 0.215576 38.0568C0.4844 36.5105 1.61599 35.6059 4.50872 34.6248C6.84543 33.8322 7.45277 33.4591 8.06471 32.4404C9.04236 30.8124 8.81183 28.946 7.25594 25.8987C6.58617 24.5862 5.94054 22.8603 5.82106 22.0624C5.58593 20.4891 6.40428 17.4015 7.64998 15.163C8.68163 13.3096 8.23512 13.5034 6.99133 15.4487ZM49.7769 17.0143C51.8509 18.8842 53.5929 21.4537 54.0478 23.3138C54.1662 23.7964 54.1436 25.534 53.9977 27.175L53.733 30.1587L52.8714 28.6641C52.3974 27.8423 51.7517 25.8141 51.4366 24.1573C50.7434 20.514 50.3004 19.6673 47.3448 16.3375C45.2076 13.9295 45.1368 13.7947 46.3308 14.4069C47.037 14.7688 48.5879 15.9419 49.7769 17.0143ZM7.6182 16.6752C6.47895 18.9411 6.379 19.4048 6.53984 21.6819C6.69225 23.841 6.99286 24.6863 8.69388 27.7353C11.6253 32.9905 11.4729 33.4261 6.20438 34.8565C1.48732 36.1374 0.323948 38.3095 1.87103 42.9483C3.425 47.6085 3.28523 49.2748 1.33759 49.3001C0.564818 49.3103 0.559839 49.3306 1.24109 49.6936C1.76495 49.9723 2.37038 49.9635 3.47287 49.6606C4.65233 49.3366 5.11032 48.9715 5.55109 48.0052C6.05121 46.9082 6.04853 46.4659 5.52964 44.1657C4.7293 40.6175 5.09424 39.9351 8.48594 38.636C9.82087 38.1245 9.81781 38.1316 7.90579 39.8207L5.98266 41.5196L6.20209 43.7374C6.32271 44.9569 6.53678 46.7741 6.6777 47.7753C6.91627 49.4696 6.85845 49.6595 5.83714 50.5269L4.7404 51.4589L5.88654 51.3396L7.03268 51.2202L7.33329 46.4814C7.67487 41.1016 8.19491 39.7386 10.3011 38.7034C12.0695 37.8339 13.4948 37.888 17.2189 38.9663C20.8124 40.0071 21.671 39.8621 22.9021 38.0066L23.6435 36.8889L23.763 38.6139L23.8821 40.3385L24.9352 39.3889C25.8079 38.6023 25.9882 38.1365 25.9882 36.6685C25.9882 35.6944 25.8492 34.8976 25.6796 34.8976C25.51 34.8976 24.826 35.2665 24.1593 35.7172C22.3955 36.91 19.9956 37.8283 19.2902 37.5801C18.9532 37.4615 18.4336 36.8286 18.1349 36.1735C17.8362 35.5185 17.3273 34.8895 17.0033 34.7758C16.6797 34.6617 16.4147 34.3461 16.4147 34.0741C16.4147 33.802 16.1562 33.3829 15.8403 33.1425C15.5244 32.902 15.2659 32.347 15.2659 31.909C15.2659 31.3547 14.9783 31.0461 14.3208 30.8948C13.3914 30.6811 13.3795 30.6323 13.6051 27.954C13.8188 25.4115 13.7575 25.0907 12.6818 23.1312C12.0484 21.9767 10.9724 19.5315 10.2907 17.6974C9.60911 15.8633 9.01172 14.3212 8.9627 14.2703C8.91369 14.2198 8.30864 15.302 7.6182 16.6752ZM31.2043 30.0678C34.0174 32.3319 34.2402 34.3286 32.4178 40.944L31.187 45.4108L30.3273 44.6704C29.0024 43.5296 28.5007 40.6649 29.0368 37.3031C29.5917 33.8248 29.2777 31.7198 27.852 29.3567L26.7327 27.5018L28.2644 28.2179C29.1069 28.6121 30.43 29.4444 31.2043 30.0678ZM53.5462 31.7384C53.7587 31.7384 54.2018 32.3309 54.5307 33.0547C55.7734 35.7885 59.0479 38.0069 63.4417 39.0913C67.3209 40.0489 69.3513 43.4226 68.0719 46.7861L67.6491 47.8978L66.1947 45.9942C65.3944 44.9474 64.6174 43.7202 64.4673 43.2677C63.5976 40.64 61.2735 38.7764 56.8352 37.148C54.8417 36.4161 53.9873 35.8692 53.1039 34.7586C51.9057 33.252 50.7342 31.3038 50.0852 29.7393C49.7424 28.913 49.8818 28.9688 51.4312 30.2777C52.382 31.0812 53.3336 31.7384 53.5462 31.7384ZM41.4518 33.9814C41.9741 34.9678 42.92 36.8019 43.5537 38.0568C44.1875 39.3117 45.3627 41.0458 46.1654 41.9107L47.6244 43.4826L46.2841 42.6173C44.3292 41.3554 41.8987 39.0498 40.7223 37.3414C39.526 35.6042 38.2423 32.3691 38.2423 31.0911V30.203L39.3724 31.1953C39.9935 31.7408 40.9294 32.9947 41.4518 33.9814ZM15.0744 36.3017C14.6934 36.6878 14.1925 37.0002 13.962 36.996C13.7315 36.9918 13.9735 36.6794 14.5 36.3017C15.7335 35.4171 15.9475 35.4171 15.0744 36.3017ZM56.1471 46.5224C60.0022 47.3617 61.035 47.7984 62.407 49.1706C63.7703 50.5332 64.007 51.2946 63.2131 51.7639C62.6219 52.1136 62.6284 52.1308 63.2805 51.9416C63.9254 51.7548 63.9805 51.8808 63.7983 53.1273C63.5559 54.7849 62.4875 56.2556 60.917 57.0956L59.7758 57.7057L59.9708 55.4792C60.343 51.2314 59.0823 49.4847 53.7399 46.8447C50.0059 44.9994 49.0922 44.371 51.4653 45.2798C52.2086 45.5645 54.3155 46.1237 56.1471 46.5224ZM13.3386 51.7632C12.1706 53.2663 11.9998 55.1587 12.7707 58.0427C13.1352 59.4061 13.3267 60.7765 13.1961 61.0882C12.9958 61.5666 13.1659 61.6196 14.2837 61.4273C15.933 61.1437 21.9095 62.0054 25.2197 63.0041C28.7431 64.0673 30.4281 64.9242 32.5185 66.7165L34.3448 68.2824L37.6809 64.3145C41.8424 59.3657 42.0388 59.0021 41.0795 58.0287C40.0893 57.024 37.3493 55.8046 34.7959 55.2314C32.0598 54.6178 27.0532 54.6827 24.7295 55.3619L22.8964 55.8983L21.0916 54.6315C17.773 52.3021 15.1434 50.6937 14.654 50.6937C14.3874 50.6937 13.7954 51.1749 13.3386 51.7632Z" fill="black"/>
</svg>

<svg width="70" height="70" fill="none" xmlns="http://www.w3.org/2000/svg"><path fill-rule="evenodd" clip-rule="evenodd" d="M25.428.177c-8.686 1.194-16.29 6.357-16.29 11.06v1.333l.98-1.802c2.844-5.231 11.232-8.158 19.36-6.756 3.441.594 6.003 1.995 9.722 5.316l3.446 3.077L39.2 10.89c-1.896-.834-4.559-2.176-5.918-2.982-3.197-1.896-5.935-2.623-9.783-2.598-4.847.032-10.148 1.445-10.148 2.706 0 .757 2.451 2.607 4.704 3.55 2.56 1.073 6.238 1.723 12.72 2.249 6.72.545 11.463 1.902 13.882 3.97.917.785 1.219 1.674.34 1.006-1.026-.78-5.115-1.835-9.818-2.532-6.388-.946-14.825-2.367-16.389-2.76-2.12-.533-4.56-2.046-5.465-3.388l-.859-1.273-.687.831c-1.86 2.25 1.75 6.393 7.26 8.336 3.762 1.327 6.625 1.798 10.945 1.801 6.366.005 11.183 1.21 13.75 3.44 1.609 1.396 2.89 3.956 3.716 7.425.403 1.692.848 3.375.988 3.74.502 1.295 2.184 3.032 3.907 4.034 1.992 1.158 1.87 1.338-.236.348-1.714-.805-2.79-1.846-3.849-3.72-1.044-1.847-1.054-1.313-.014.715 1.29 2.515 3.273 3.821 7.153 4.71 3.228.74 6.42 1.944 6.853 2.586.116.172-.133.213-.555.09-.422-.122-2.21-.437-3.976-.699-3.842-.57-5.49-1.16-7.291-2.61-1.65-1.327-3.337-4.65-3.597-7.081-.261-2.444-1.84-5.928-3.487-7.69-2.474-2.65-4.88-3.386-12.762-3.903-3.054-.201-6.573-.606-7.82-.901-4.48-1.06-8.845-3.718-11.386-6.934-1.408-1.782-1.393-1.243.028 1.028 1.223 1.953 4.245 4.292 6.98 5.4 2.722 1.105 6.18 1.699 12.209 2.099 3.06.203 6.435.607 7.5.896 2.305.628 4.683 2.133 5.924 3.75.813 1.06.706 1.014-1.1-.462-3.018-2.467-4.415-2.797-13.101-3.088-7.14-.24-7.56-.294-9.574-1.229-4.621-2.144-8.016-4.854-9.695-7.738l-.614-1.053-.015 1.205c-.008.663.325 1.85.74 2.637 1.39 2.632 3.785 4.378 13.59 9.91 1.522.859 3.117 3.328 3.843 5.947.482 1.742.523 2.738.215 5.265-.21 1.728-.24 3.674-.066 4.367.366 1.459 1.387 2.997 2.173 3.273.303.107.553.634.554 1.17.007 3.292 2.326 5.998 5.972 6.97 2.554.68 4.29.457 5.86-.753 2.806-2.165 2.119-6.118-1.064-6.118-.423 0-.874.157-1.003.348-.13.194.012.26.326.15.79-.278 1.18 1.091.647 2.27-.797 1.764-3.592 2.673-5.437 1.767-.907-.445-2.22-2.916-2.232-4.204-.006-.653.279-1.005 1.045-1.292l1.053-.395-1.052.19c-1.013.182-1.043.146-.807-.99.134-.648.67-2.521 1.192-4.162.52-1.641 1.114-3.616 1.317-4.388.53-2.013-.216-4.745-1.826-6.678-1.42-1.705-1.342-1.903.374-.948.986.549 1.234 1.073 2.175 4.579.584 2.178 1.585 4.984 2.224 6.237 2.485 4.867 4.483 6.528 12.175 10.117 3.932 1.836 4.352 2.13 5.114 3.572 1.607 3.042.28 5.595-5.187 9.98-2.042 1.638-3.953 3.105-4.248 3.259-.872.456-.622 1.29.765 2.563C49.488 69.847 49.9 70 51.582 70c1.06 0 2.39-.16 2.953-.357l1.025-.358-1-.72c-1.581-1.141-1.362-2.642.748-5.116.96-1.127 2.279-2.8 2.929-3.716.987-1.393 1.378-1.67 2.369-1.675 3.314-.022 6.36-2.552 7.074-5.876.251-1.168.423-2.257.383-2.42-.04-.163.407-1.223.993-2.356.928-1.79 1.043-2.364.885-4.387-.321-4.098-2.594-6.808-7.376-8.795-1.372-.57-2.495-1.176-2.495-1.344 0-.169.861-.51 1.914-.757 1.052-.247 2.007-.588 2.121-.757.115-.17-.51-.076-1.387.207-4.14 1.34-5.142-.024-3.385-4.606.61-1.59.758-2.658.635-4.581-.293-4.578-3.235-7.852-8.82-9.816-3.148-1.106-4.297-1.953-6.519-4.807-3.006-3.862-6.52-6.291-10.414-7.2-2.395-.558-6.291-.73-8.787-.386zM6.99 15.449c-2.51 3.925-2.68 6.352-.724 10.322 2.29 4.65 1.716 6.217-2.832 7.737-2.83.946-3.506 1.703-3.43 3.837.032.874.127 1.194.21.712.27-1.547 1.401-2.451 4.294-3.432 2.336-.793 2.944-1.166 3.556-2.185.977-1.628.747-3.494-.81-6.541-.669-1.313-1.314-3.039-1.434-3.837-.235-1.573.583-4.66 1.829-6.899 1.032-1.853.585-1.66-.659.286zm42.786 1.565c2.074 1.87 3.816 4.44 4.27 6.3.12.482.097 2.22-.05 3.861l-.264 2.984-.862-1.495c-.474-.822-1.12-2.85-1.434-4.507-.694-3.643-1.137-4.49-4.092-7.82-2.137-2.407-2.208-2.542-1.014-1.93.706.362 2.257 1.535 3.446 2.607zm-42.159-.339c-1.14 2.266-1.239 2.73-1.078 5.007.152 2.159.453 3.004 2.154 6.053 2.931 5.255 2.779 5.691-2.49 7.121-4.717 1.281-5.88 3.453-4.333 8.092 1.554 4.66 1.414 6.327-.533 6.352-.773.01-.778.03-.097.394.524.278 1.13.27 2.232-.033 1.18-.324 1.637-.69 2.078-1.656.5-1.097.498-1.54-.021-3.84-.8-3.547-.436-4.23 2.956-5.529 1.335-.512 1.332-.504-.58 1.185L5.983 41.52l.22 2.217c.12 1.22.334 3.037.475 4.038.238 1.695.18 1.885-.84 2.752l-1.098.932 1.147-.12 1.146-.119.3-4.739c.342-5.38.862-6.742 2.968-7.778 1.768-.87 3.194-.815 6.918.263 3.593 1.041 4.452.896 5.683-.96l.741-1.117.12 1.725.12 1.725 1.052-.95c.873-.787 1.053-1.253 1.053-2.72 0-.975-.139-1.771-.308-1.771-.17 0-.854.368-1.52.82-1.765 1.192-4.164 2.11-4.87 1.862-.337-.118-.856-.751-1.155-1.407-.299-.654-.808-1.284-1.132-1.397-.323-.114-.588-.43-.588-.702 0-.272-.259-.691-.575-.931-.316-.241-.574-.796-.574-1.234 0-.554-.288-.863-.945-1.014-.93-.214-.941-.263-.716-2.941.214-2.543.152-2.863-.923-4.823-.634-1.154-1.71-3.6-2.391-5.434-.682-1.834-1.28-3.376-1.328-3.427-.05-.05-.654 1.032-1.345 2.405zm23.586 13.393c2.813 2.264 3.036 4.26 1.214 10.876l-1.231 4.467-.86-.74c-1.325-1.141-1.826-4.006-1.29-7.368.555-3.478.24-5.583-1.185-7.946l-1.12-1.855 1.532.716c.843.394 2.166 1.226 2.94 1.85zm22.342 1.67c.213 0 .656.593.985 1.317 1.242 2.733 4.517 4.952 8.91 6.036 3.88.958 5.91 4.332 4.63 7.695l-.422 1.112-1.454-1.904c-.8-1.047-1.578-2.274-1.728-2.726-.87-2.628-3.194-4.492-7.632-6.12-1.993-.732-2.848-1.279-3.731-2.39-1.198-1.506-2.37-3.454-3.019-5.019-.343-.826-.203-.77 1.346.539.951.803 1.903 1.46 2.115 1.46zm-12.094 2.243c.522.987 1.468 2.82 2.102 4.076.633 1.255 1.809 2.989 2.611 3.854l1.46 1.572-1.34-.866c-1.956-1.262-4.386-3.567-5.563-5.276-1.196-1.737-2.48-4.972-2.48-6.25v-.888l1.13.992c.621.546 1.557 1.8 2.08 2.786zm-26.378 2.32c-.38.387-.881.7-1.112.695-.23-.004.011-.317.538-.694 1.233-.885 1.447-.885.574 0zm41.073 10.221c3.855.84 4.888 1.276 6.26 2.649 1.363 1.362 1.6 2.124.806 2.593-.591.35-.585.367.068.178.644-.187.7-.061.517 1.185-.242 1.658-1.31 3.129-2.881 3.969l-1.141.61.195-2.227c.372-4.248-.889-5.994-6.231-8.634-3.734-1.846-4.648-2.474-2.275-1.565.744.285 2.85.844 4.682 1.242zM13.34 51.763c-1.168 1.503-1.34 3.396-.568 6.28.364 1.363.556 2.733.425 3.045-.2.479-.03.532 1.088.34 1.649-.284 7.626.577 10.936 1.576 3.523 1.063 5.208 1.92 7.299 3.712l1.826 1.566 3.336-3.968c4.161-4.948 4.358-5.312 3.399-6.285-.99-1.005-3.73-2.224-6.284-2.798-2.736-.613-7.743-.548-10.066.13l-1.834.537-1.804-1.267c-3.319-2.329-5.949-3.937-6.438-3.937-.267 0-.859.48-1.315 1.07z" fill="#000"/></svg>
